gama.ui.shared/icons_svg/light/experiment/experiment.step.back.svg

<svg height="25" viewBox="-649.505 -3695.231 25 25" width="25" xmlns="http://www.w3.org/2000/svg"><g fill="none"><circle cx="-637.005" cy="-3682.731" fill="#fff" r="12"/><circle cx="-637.005" cy="-3682.731" r="12" stroke="#000" stroke-linecap="round" stroke-linejoin="round" stroke-width=".25"/><path d="m-638.56106-3681.304 6.21446 4.2155c.2333.1555.5444.0935.7-.1323.0544-.0855.08554-.1789.08554-.28v-11.4022c0-.28-.22554-.5055-.50554-.5055-.1011 0-.2022.0311-.28.0855l-6.21446 4.2156v3.8111zm0-4.7523 5.77111-3.92c.21-.1477.46665-.2177.72335-.2177.7078 0 1.2833.5755 1.2833 1.2832v11.4023c0 .2565-.07776.5055-.21776.7235-.40444.583-1.19774.7387-1.78889.342l-5.77111-3.92v2.209c0 1.0732-.87114 1.9443-1.94444 1.9443h-.7778c-1.0733 0-1.9444-.8711-1.9444-1.9443v-10.111c0-1.0735.8711-1.9447 1.9444-1.9447h.7778c1.0733 0 1.94444.8712 1.94444 1.9447zm-1.94444 9.0689c.64555 0 1.1667-.5211 1.1667-1.1666v-10.111c0-.6458-.52115-1.167-1.1667-1.167h-.7778c-.6455 0-1.16665.5212-1.16665 1.167v10.111c0 .6455.52115 1.1666 1.16665 1.1666z" fill="#66727e"/></g></svg>

<?xml version="1.0" encoding="UTF-8" standalone="no"?>
<!DOCTYPE svg PUBLIC "-//W3C//DTD SVG 1.1//EN" "http://www.w3.org/Graphics/SVG/1.1/DTD/svg11.dtd">
<svg version="1.1" xmlns="http://www.w3.org/2000/svg" xmlns:xl="http://www.w3.org/1999/xlink" xmlns:dc="http://purl.org/dc/elements/1.1/" viewBox="-649.5055 -3695.231 24.999996 25" width="24.999996" height="25">
  <defs/>
  <g id="SOURCES" stroke-dasharray="none" fill="none" stroke="none" fill-opacity="1" stroke-opacity="1">
    <title>SOURCES</title>
    <g id="SOURCES_Calque_2">
      <title>Calque 2</title>
      <g id="Graphic_9181">
        <circle cx="-637.0055" cy="-3682.731" r="12.000018268838" fill="white"/>
        <circle cx="-637.0055" cy="-3682.731" r="12.000018268838" stroke="black" stroke-linecap="round" stroke-linejoin="round" stroke-width=".25"/>
      </g>
      <g id="Group_9199">
        <title>next</title>
        <g id="Graphic_9200">
          <path d="M -638.56106 -3681.304 L -632.3466 -3677.0885 C -632.1133 -3676.933 -631.8022 -3676.995 -631.6466 -3677.2208 C -631.5922 -3677.3063 -631.56106 -3677.3997 -631.56106 -3677.5008 L -631.56106 -3688.903 C -631.56106 -3689.183 -631.7866 -3689.4085 -632.0666 -3689.4085 C -632.1677 -3689.4085 -632.2688 -3689.3774 -632.3466 -3689.323 L -638.56106 -3685.1074 L -638.56106 -3681.2963 Z M -638.56106 -3686.0563 L -632.78995 -3689.9763 C -632.57995 -3690.124 -632.3233 -3690.194 -632.0666 -3690.194 C -631.3588 -3690.194 -630.7833 -3689.6185 -630.7833 -3688.9108 L -630.7833 -3677.5085 C -630.7833 -3677.252 -630.86106 -3677.003 -631.00106 -3676.785 C -631.4055 -3676.202 -632.1988 -3676.0463 -632.78995 -3676.443 L -638.56106 -3680.363 L -638.56106 -3678.154 C -638.56106 -3677.0808 -639.4322 -3676.2097 -640.5055 -3676.2097 L -641.2833 -3676.2097 C -642.3566 -3676.2097 -643.2277 -3677.0808 -643.2277 -3678.154 L -643.2277 -3688.265 C -643.2277 -3689.3385 -642.3566 -3690.2097 -641.2833 -3690.2097 L -640.5055 -3690.2097 C -639.4322 -3690.2097 -638.56106 -3689.3385 -638.56106 -3688.265 Z M -640.5055 -3676.9874 C -639.85995 -3676.9874 -639.3388 -3677.5085 -639.3388 -3678.154 L -639.3388 -3688.265 C -639.3388 -3688.9108 -639.85995 -3689.432 -640.5055 -3689.432 L -641.2833 -3689.432 C -641.9288 -3689.432 -642.44995 -3688.9108 -642.44995 -3688.265 L -642.44995 -3678.154 C -642.44995 -3677.5085 -641.9288 -3676.9874 -641.2833 -3676.9874 Z" fill="#66727e"/>
        </g>
      </g>
    </g>
  </g>
</svg>
